web/themes/quartiers_solidaires/assets/icons/wheel.svg

<?xml version="1.0" encoding="UTF-8"?>
<svg width="90px" height="90px" viewBox="0 0 90 90" version="1.1" xmlns="http://www.w3.org/2000/svg" xmlns:xlink="http://www.w3.org/1999/xlink">
    <defs>
        <polygon id="path-1" points="0.0001 90 90 90 90 0.0003 0.0001 0.0003"></polygon>
    </defs>
    <g id="Page-1" stroke="none" stroke-width="1" fill="none" fill-rule="evenodd">
        <g id="wheel">
            <path d="M43.0117,72.209 L43.0117,53.727 C43.0117,53.69 43.0037,53.655 43.0007,53.62 C43.6447,53.769 44.3117,53.855 44.9997,53.855 C45.6877,53.855 46.3547,53.769 46.9987,53.62 C46.9957,53.656 46.9877,53.69 46.9877,53.727 L46.9877,72.209 C46.3307,72.257 45.6687,72.29 44.9997,72.29 C44.3307,72.29 43.6697,72.257 43.0117,72.209 L43.0117,72.209 Z M46.9877,17.791 L46.9877,36.273 C46.9877,36.31 46.9957,36.344 46.9987,36.38 C46.3547,36.231 45.6877,36.145 44.9997,36.145 C44.3117,36.145 43.6447,36.231 43.0007,36.38 C43.0037,36.344 43.0117,36.31 43.0117,36.273 L43.0117,17.791 C43.6697,17.743 44.3307,17.71 44.9997,17.71 C45.6687,17.71 46.3307,17.743 46.9877,17.791 L46.9877,17.791 Z M53.7267,46.988 C53.6897,46.988 53.6557,46.997 53.6197,46.999 C53.7687,46.355 53.8557,45.688 53.8557,45 C53.8557,44.312 53.7687,43.645 53.6197,43.001 C53.6557,43.004 53.6897,43.012 53.7267,43.012 L72.2097,43.012 C72.2567,43.669 72.2897,44.331 72.2897,45 C72.2897,45.669 72.2567,46.331 72.2087,46.988 L53.7267,46.988 Z M50.2407,57.653 L60.2247,67.637 C57.2577,69.639 53.8767,71.069 50.2407,71.779 L50.2407,57.653 Z M50.2407,32.347 L50.2407,18.221 C53.8767,18.931 57.2577,20.361 60.2247,22.363 L50.2407,32.347 Z M71.7797,39.759 L57.6527,39.759 L67.6367,29.775 C69.6387,32.742 71.0687,36.123 71.7797,39.759 L71.7797,39.759 Z M65.6367,27.175 L52.5777,40.234 C52.5507,40.261 52.5307,40.293 52.5057,40.322 C51.7897,39.178 50.8227,38.21 49.6787,37.495 C49.7067,37.47 49.7387,37.449 49.7647,37.423 L62.8247,24.363 C63.8287,25.231 64.7687,26.17 65.6367,27.175 L65.6367,27.175 Z M39.3977,45 C39.3977,41.911 41.9107,39.397 44.9997,39.397 C48.0887,39.397 50.6027,41.911 50.6027,45 C50.6027,48.089 48.0887,50.603 44.9997,50.603 C41.9107,50.603 39.3977,48.089 39.3977,45 L39.3977,45 Z M39.7587,57.653 L39.7587,71.779 C36.1227,71.069 32.7417,69.639 29.7757,67.637 L39.7587,57.653 Z M36.2737,43.012 C36.3107,43.012 36.3447,43.004 36.3807,43.001 C36.2317,43.645 36.1447,44.312 36.1447,45 C36.1447,45.688 36.2317,46.355 36.3807,46.999 C36.3447,46.997 36.3107,46.988 36.2737,46.988 L17.7917,46.988 C17.7437,46.331 17.7107,45.669 17.7107,45 C17.7107,44.331 17.7437,43.669 17.7917,43.012 L36.2737,43.012 Z M39.7587,32.347 L29.7747,22.363 C32.7417,20.361 36.1227,18.931 39.7587,18.221 L39.7587,32.347 Z M27.1747,24.363 L40.2337,37.421 C40.2607,37.449 40.2927,37.47 40.3217,37.495 C39.1777,38.211 38.2107,39.178 37.4947,40.322 C37.4697,40.293 37.4497,40.261 37.4217,40.233 L24.3637,27.174 C25.2317,26.171 26.1707,25.231 27.1747,24.363 L27.1747,24.363 Z M22.3637,29.775 L32.3477,39.759 L18.2207,39.759 C18.9317,36.123 20.3617,32.742 22.3637,29.775 L22.3637,29.775 Z M18.2217,50.241 L32.3477,50.241 L22.3637,60.225 C20.3617,57.258 18.9317,53.877 18.2217,50.241 L18.2217,50.241 Z M24.3637,62.825 L37.4227,49.766 C37.4497,49.739 37.4707,49.707 37.4957,49.678 C38.2107,50.822 39.1787,51.789 40.3217,52.505 C40.2937,52.53 40.2617,52.551 40.2347,52.578 L27.1747,65.637 C26.1717,64.769 25.2317,63.829 24.3637,62.825 L24.3637,62.825 Z M62.8247,65.637 L49.7637,52.576 C49.7377,52.55 49.7057,52.53 49.6777,52.505 C50.8217,51.79 51.7887,50.822 52.5047,49.678 C52.5297,49.707 52.5507,49.738 52.5767,49.765 L65.6367,62.825 C64.7687,63.829 63.8287,64.769 62.8247,65.637 L62.8247,65.637 Z M67.6367,60.225 L57.6527,50.241 L71.7787,50.241 C71.0687,53.877 69.6387,57.258 67.6367,60.225 L67.6367,60.225 Z M44.9997,14.458 C28.1587,14.458 14.4577,28.159 14.4577,45 C14.4577,61.841 28.1587,75.542 44.9997,75.542 C61.8417,75.542 75.5427,61.841 75.5427,45 C75.5427,28.159 61.8417,14.458 44.9997,14.458 L44.9997,14.458 Z" id="Fill-1" fill="currentColor"></path>
            <g id="Group-5">
                <mask id="mask-2" fill="white">
                    <use xlink:href="#path-1"></use>
                </mask>
                <g id="Clip-4"></g>
                <path d="M86.7471,46.9883 L82.7181,46.9883 C82.7521,46.3293 82.7701,45.6673 82.7701,44.9993 C82.7701,44.3333 82.7521,43.6703 82.7181,43.0123 L86.7471,43.0123 L86.7471,46.9883 Z M75.9261,73.1143 L73.1131,75.9253 L70.2511,73.0623 C71.2361,72.1753 72.1741,71.2363 73.0621,70.2503 L75.9261,73.1143 Z M46.9881,86.7473 L43.0121,86.7473 L43.0121,82.7183 C43.6701,82.7533 44.3331,82.7713 45.0001,82.7713 C45.6671,82.7713 46.3291,82.7533 46.9881,82.7183 L46.9881,86.7473 Z M16.8861,75.9253 L14.0751,73.1143 L16.9381,70.2513 C17.8261,71.2363 18.7641,72.1753 19.7491,73.0623 L16.8861,75.9253 Z M3.2531,46.9883 L3.2531,43.0123 L7.2821,43.0123 C7.2471,43.6703 7.2281,44.3333 7.2281,44.9993 C7.2281,45.6673 7.2471,46.3293 7.2821,46.9883 L3.2531,46.9883 Z M14.0751,16.8853 L16.8861,14.0743 L19.7491,16.9383 C18.7641,17.8253 17.8261,18.7633 16.9381,19.7493 L14.0751,16.8853 Z M43.0121,3.2533 L46.9881,3.2533 L46.9881,7.2813 C46.3291,7.2473 45.6671,7.2293 45.0001,7.2293 C44.3331,7.2293 43.6701,7.2473 43.0121,7.2813 L43.0121,3.2533 Z M73.1131,14.0743 L75.9261,16.8853 L73.0621,19.7493 C72.1741,18.7643 71.2361,17.8253 70.2501,16.9383 L73.1131,14.0743 Z M45.0001,79.5183 C25.9661,79.5183 10.4821,64.0343 10.4821,44.9993 C10.4821,25.9663 25.9661,10.4823 45.0001,10.4823 C64.0331,10.4823 79.5181,25.9663 79.5181,44.9993 C79.5181,64.0343 64.0331,79.5183 45.0001,79.5183 L45.0001,79.5183 Z M88.3731,39.7593 L82.3991,39.7593 C81.4921,33.2563 78.9291,27.2783 75.1431,22.2693 L79.3761,18.0353 C79.6811,17.7313 79.8521,17.3173 79.8521,16.8853 C79.8521,16.4543 79.6811,16.0403 79.3761,15.7363 L74.2631,10.6243 C73.6281,9.9883 72.5991,9.9883 71.9631,10.6243 L67.7311,14.8573 C62.7221,11.0713 56.7441,8.5083 50.2411,7.6003 L50.2411,1.6263 C50.2411,0.7283 49.5121,0.0003 48.6141,0.0003 L41.3851,0.0003 C40.4871,0.0003 39.7591,0.7283 39.7591,1.6263 L39.7591,7.6003 C33.2561,8.5083 27.2781,11.0713 22.2691,14.8573 L18.0361,10.6243 C17.7311,10.3193 17.3181,10.1483 16.8861,10.1483 C16.4551,10.1483 16.0411,10.3193 15.7361,10.6243 L10.6241,15.7363 C9.9891,16.3703 9.9891,17.4013 10.6241,18.0353 L14.8571,22.2683 C11.0711,27.2773 8.5081,33.2563 7.6011,39.7593 L1.6261,39.7593 C0.7281,39.7593 0.0001,40.4873 0.0001,41.3853 L0.0001,48.6143 C0.0001,49.5123 0.7281,50.2413 1.6261,50.2413 L7.6011,50.2413 C8.5081,56.7443 11.0711,62.7223 14.8571,67.7313 L10.6241,71.9643 C9.9891,72.5993 9.9891,73.6293 10.6241,74.2643 L15.7361,79.3763 C16.0411,79.6803 16.4551,79.8523 16.8861,79.8523 C17.3181,79.8523 17.7311,79.6803 18.0361,79.3763 L22.2681,75.1433 C27.2771,78.9293 33.2561,81.4933 39.7591,82.3993 L39.7591,88.3733 C39.7591,89.2713 40.4871,90.0003 41.3851,90.0003 L48.6141,90.0003 C49.5121,90.0003 50.2411,89.2713 50.2411,88.3733 L50.2411,82.4003 C56.7441,81.4933 62.7221,78.9293 67.7311,75.1423 L71.9631,79.3763 C72.2811,79.6933 72.6971,79.8523 73.1131,79.8523 C73.5291,79.8523 73.9461,79.6933 74.2631,79.3763 L79.3761,74.2643 C79.6811,73.9593 79.8521,73.5453 79.8521,73.1143 C79.8521,72.6833 79.6811,72.2693 79.3761,71.9643 L75.1431,67.7313 C78.9291,62.7223 81.4921,56.7443 82.3991,50.2413 L88.3731,50.2413 C89.2711,50.2413 90.0001,49.5123 90.0001,48.6143 L90.0001,41.3853 C90.0001,40.4873 89.2711,39.7593 88.3731,39.7593 L88.3731,39.7593 Z" id="Fill-3" fill="currentColor" mask="url(#mask-2)"></path>
            </g>
        </g>
    </g>
</svg>

<svg xmlns="http://www.w3.org/2000/svg" viewBox="0 0 90 90">
  <path d="M88.4 39.8h-6c-.9-6.5-3.5-12.5-7.3-17.5l4.2-4.2c.3-.3.5-.7.5-1.2 0-.4-.2-.8-.5-1.1l-5.1-5.1c-.6-.6-1.7-.6-2.3 0l-4.2 4.2c-5-3.8-11-6.3-17.5-7.3v-6c0-.9-.7-1.6-1.6-1.6h-7.2c-.9 0-1.6.7-1.6 1.6v6c-6.5.9-12.5 3.5-17.5 7.3L18 10.6c-.3-.3-.7-.5-1.1-.5-.4 0-.8.2-1.2.5l-5.1 5.1c-.6.6-.6 1.7 0 2.3l4.2 4.2c-3.8 5-6.3 11-7.3 17.5h-6c-.9 0-1.6.7-1.6 1.6v7.2c0 .9.7 1.6 1.6 1.6h6c.9 6.5 3.5 12.5 7.3 17.5L10.6 72c-.6.6-.6 1.7 0 2.3l5.1 5.1c.3.3.7.5 1.2.5.4 0 .8-.2 1.1-.5l4.2-4.2c5 3.8 11 6.4 17.5 7.3v6c0 .9.7 1.6 1.6 1.6h7.2c.9 0 1.6-.7 1.6-1.6v-6c6.5-.9 12.5-3.5 17.5-7.3l4.2 4.2c.3.3.7.5 1.2.5s.8-.2 1.2-.5l5.1-5.1c.3-.3.5-.7.5-1.2 0-.4-.2-.8-.5-1.1l-4.2-4.2c3.8-5 6.3-11 7.3-17.5h6c.9 0 1.6-.7 1.6-1.6v-7.2c0-1-.7-1.7-1.6-1.7zM7.3 47h-4v-4h4c0 .7-.1 1.3-.1 2s0 1.3.1 2zm65.8-32.9l2.8 2.8-2.9 2.9c-.9-1-1.8-1.9-2.8-2.8l2.9-2.9zM43 3.3h4v4c-.7 0-1.3-.1-2-.1s-1.3 0-2 .1v-4zM14.1 16.9l2.8-2.8 2.9 2.9c-1 .9-1.9 1.8-2.8 2.8l-2.9-2.9zm2.8 59l-2.8-2.8 2.9-2.9c.9 1 1.8 1.9 2.8 2.8l-2.9 2.9zM47 86.7h-4v-4c.7 0 1.3.1 2 .1s1.3 0 2-.1v4zm28.9-13.6l-2.8 2.8-2.9-2.9c1-.9 1.9-1.8 2.8-2.8l2.9 2.9zM45 79.5C26 79.5 10.5 64 10.5 45S26 10.5 45 10.5 79.5 26 79.5 45 64 79.5 45 79.5zM86.7 47h-4c0-.7.1-1.3.1-2s0-1.3-.1-2h4v4z"/>
  <path d="M45 14.5c-16.8 0-30.5 13.7-30.5 30.5S28.2 75.5 45 75.5 75.5 61.8 75.5 45 61.8 14.5 45 14.5zm5.2 3.7c3.6.7 7 2.1 10 4.1l-10 10V18.2zm-.4 19.2l13.1-13.1c1 .9 1.9 1.8 2.8 2.8L52.6 40.2s0 .1-.1.1c-.7-1.1-1.7-2.1-2.7-2.9-.1.1-.1 0 0 0zM43 36.3V17.8c.7 0 1.3-.1 2-.1s1.3 0 2 .1v18.6c-.6-.1-1.3-.2-2-.2s-1.4.1-2 .2v-.1zm-3.2-18.1v14.1l-10-10c2.9-1.9 6.3-3.4 10-4.1zm-12.6 6.2l13.1 13.1s.1 0 .1.1c-1.1.7-2.1 1.7-2.8 2.8 0 0 0-.1-.1-.1L24.4 27.2c.8-1 1.8-2 2.8-2.8zm-4.8 5.4l10 10H18.2c.7-3.7 2.2-7.1 4.2-10zM17.7 45c0-.7 0-1.3.1-2h18.6c-.1.6-.2 1.3-.2 2s.1 1.4.2 2H17.8c-.1-.7-.1-1.3-.1-2zm4.7 15.2c-2-3-3.4-6.3-4.1-10h14.1l-10 10zm17.4 11.6c-3.6-.7-7-2.1-10-4.1l10-10v14.1zm.4-19.2l-13 13c-1-.9-1.9-1.8-2.8-2.8l13.1-13.1s0-.1.1-.1c.6 1.2 1.6 2.2 2.6 3 .1-.1.1 0 0 0zm6.8 1.1v18.5c-.7 0-1.3.1-2 .1s-1.3 0-2-.1V53.7v-.1c.6.1 1.3.2 2 .2s1.4-.1 2-.2v.1zm-2-3.1c-3.1 0-5.6-2.5-5.6-5.6 0-3.1 2.5-5.6 5.6-5.6s5.6 2.5 5.6 5.6c0 3.1-2.5 5.6-5.6 5.6zm5.2 21.2V57.7l10 10c-2.9 1.9-6.3 3.4-10 4.1zm12.6-6.2l-13-13s-.1 0-.1-.1c1.1-.7 2.1-1.7 2.8-2.8 0 0 0 .1.1.1l13.1 13.1c-.9.9-1.9 1.9-2.9 2.7zm4.8-5.4l-10-10h14.1c-.6 3.7-2.1 7.1-4.1 10zM72.3 45c0 .7 0 1.3-.1 2H53.7h-.1c.1-.6.2-1.3.2-2s-.1-1.4-.2-2h18.6c.1.7.1 1.3.1 2zm-.5-5.2H57.7l10-10c1.9 2.9 3.4 6.3 4.1 10z"/>
</svg>
